X:135
T:Flying Pig, The
R:slide
C:Aog\'an Lynch
D:Slide
Z:id:hn-slide-135
M:6/8
L:1/8
K:Em
e3 g3 | edB A2B | GBd g2b | a2b g2f |
e2f g2e | edB A2B | G2B d2B |1 A2f g2f :|2 A2B d2B ||
|: c2d e2d | def a2f | g2b a2g | gfe d2B |
[1 c2d e2d | def a2f | g2b a2g | f3 d2B :|
[2 cde g2e | dBA G2A | F2A G2F | D3 ABd ||

